view/frontend/web/svg/flags/cx.svg

<svg width="24" height="24" viewbox="0 0 20 15" viewBox="0 0 20 15" fill="none" xmlns="http://www.w3.org/2000/svg">
<g clip-path="url(#clip0_270_60863)">
<rect width="20" height="15" fill="white"/>
<path fill-rule="evenodd" clip-rule="evenodd" d="M0 0H20V15H0V0Z" fill="#5EAA22"/>
<path fill-rule="evenodd" clip-rule="evenodd" d="M0 0L20 15H0V0Z" fill="#4141DB"/>
<path fill-rule="evenodd" clip-rule="evenodd" d="M3.75 5.625L3.125 6.08253L3.20873 5.3125L2.5 5L3.20873 4.6875L3.125 3.91747L3.75 4.375L4.375 3.91747L4.29127 4.6875L5 5L4.29127 5.3125L4.375 6.08253L3.75 5.625Z" fill="white"/>
<path fill-rule="evenodd" clip-rule="evenodd" d="M2.5 9.375L1.875 9.83253L1.95873 9.0625L1.25 8.75L1.95873 8.4375L1.875 7.66747L2.5 8.125L3.125 7.66747L3.04127 8.4375L3.75 8.75L3.04127 9.0625L3.125 9.83253L2.5 9.375Z" fill="white"/>
<path fill-rule="evenodd" clip-rule="evenodd" d="M5 13.125L4.375 13.5825L4.45873 12.8125L3.75 12.5L4.45873 12.1875L4.375 11.4175L5 11.875L5.625 11.4175L5.54127 12.1875L6.25 12.5L5.54127 12.8125L5.625 13.5825L5 13.125Z" fill="white"/>
<path fill-rule="evenodd" clip-rule="evenodd" d="M5.625 7.1875L5.3125 7.41627L5.35437 7.03125L5 6.875L5.35437 6.71875L5.3125 6.33373L5.625 6.5625L5.9375 6.33373L5.89563 6.71875L6.25 6.875L5.89563 7.03125L5.9375 7.41627L5.625 7.1875Z" fill="white"/>
<path fill-rule="evenodd" clip-rule="evenodd" d="M13.4757 7.63995C13.242 7.39622 15.3446 6.82353 15.5625 6.08507C15.8513 5.44214 15.6584 4.92117 14.567 4.46364C13.4757 4.00611 12.3727 3.12143 13.641 3.12143C14.9093 3.12143 14.9093 3.30227 15.25 3.8357C15.5907 4.36914 16.3272 4.48341 16.3428 3.8357C16.3428 2.73208 16.447 2.58365 15.556 1.62417C14.6651 0.664686 17.7901 2.01819 17.5318 3.66306C17.2735 5.30793 16.9625 4.77717 17.1599 5.05328C17.3573 5.3294 18.5451 4.47228 18.3968 5.61403C17.9813 6.27069 17.1571 7.24772 13.4757 7.63995Z" fill="#FECA00"/>
<path fill-rule="evenodd" clip-rule="evenodd" d="M10 10.625C11.7259 10.625 13.125 9.22589 13.125 7.5C13.125 5.77411 11.7259 4.375 10 4.375C8.27411 4.375 6.875 5.77411 6.875 7.5C6.875 9.22589 8.27411 10.625 10 10.625Z" fill="#FECA00"/>
<path fill-rule="evenodd" clip-rule="evenodd" d="M8.0956 6.35129C8.45007 6.27226 8.93477 7.22145 9.8096 6.86544C10.6844 6.50944 10.8671 5.82977 11.2828 6.07852C11.6984 6.32728 11.753 6.9262 11.4761 7.22723C11.1992 7.52826 10.7293 7.59946 10.7293 7.97994C10.7293 8.36041 10.6372 9.71721 10.4576 9.324C9.91914 8.88709 10.2477 8.19119 9.58439 7.97994C8.9211 7.76868 8.51825 7.77576 8.02896 7.86491C7.53967 7.95405 8.35767 7.62002 8.53115 7.30289C8.88437 6.96308 7.93352 6.46428 8.0956 6.35129Z" fill="#548650"/>
</g>
<defs>
<clipPath id="clip0_270_60863">
<rect width="20" height="15" fill="white"/>
</clipPath>
</defs>
</svg>

<svg width="24" height="24" viewbox="0 0 20 15" fill="none" xmlns="http://www.w3.org/2000/svg">
  <mask id="a" maskUnits="userSpaceOnUse" x="0" y="0" width="20" height="15">
    <path fill="#fff" d="M0 0h20v15H0z"/>
  </mask>
  <g mask="url(#a)" fill-rule="evenodd" clip-rule="evenodd">
    <path d="M0 0h20v15H0V0z" fill="#5EAA22"/>
    <path d="M0 0l20 15H0V0z" fill="#4141DB"/>
    <path d="M3.75 5.625l-.625.458.084-.77L2.5 5l.709-.313-.084-.77.625.458.625-.458-.084.77L5 5l-.709.313.084.77-.625-.458zM2.5 9.375l-.625.458.084-.77-.709-.313.709-.313-.084-.77.625.458.625-.458-.084.77.709.313-.709.313.084.77-.625-.458zm2.5 3.75l-.625.457.084-.77-.709-.312.709-.313-.084-.77.625.458.625-.457-.084.77.709.312-.709.313.084.77L5 13.124zm.625-5.937l-.313.228.042-.385L5 6.875l.354-.156-.042-.385.313.229.313-.23-.042.386.354.156-.354.156.042.385-.313-.229z" fill="#fff"/>
    <path d="M13.476 7.64c-.234-.244 1.869-.816 2.086-1.555.29-.643.096-1.164-.995-1.621-1.091-.458-2.194-1.343-.926-1.343 1.268 0 1.268.181 1.609.715.34.533 1.077.647 1.093 0 0-1.104.104-1.252-.787-2.212-.89-.96 2.234.394 1.976 2.04-.259 1.644-.57 1.113-.372 1.39.197.275 1.385-.582 1.237.56-.416.657-1.24 1.634-4.921 2.026z" fill="#FECA00"/>
    <path d="M10 10.625a3.125 3.125 0 100-6.25 3.125 3.125 0 000 6.25z" fill="#FECA00"/>
    <path d="M8.096 6.351c.354-.079.839.87 1.714.514.874-.356 1.057-1.035 1.473-.786.415.248.47.847.193 1.148-.277.301-.747.372-.747.753 0 .38-.092 1.737-.271 1.344-.539-.437-.21-1.133-.874-1.344-.663-.211-1.066-.204-1.555-.115-.49.089.329-.245.502-.562.353-.34-.597-.839-.435-.952z" fill="#548650"/>
  </g>
</svg>
